flaticon/medical/cardiogram-1.svg

<svg xmlns="http://www.w3.org/2000/svg" width="32" height="32" viewBox="0 0 24 24">
    <path d="M21.199219 12.398438L16.742188 12.398438 15.59375 5.136719C15.566406 4.945312 15.402344 4.804688 15.210938 4.800781 15.207031 4.800781 15.203125 4.800781 15.199219 4.800781 15.011719 4.800781 14.847656 4.933594 14.808594 5.117188L13.417969 11.730469 12.742188 10.59375C12.671875 10.472656 12.535156 10.398438 12.394531 10.398438 12.25 10.402344 12.121094 10.480469 12.050781 10.605469L10.457031 13.46875 8.371094 8.25C8.3125 8.101562 8.167969 8.003906 8.007812 8 7.847656 8.003906 7.703125 8.089844 7.636719 8.234375L5.742188 12.398438 2.800781 12.398438C2.578125 12.398438 2.398438 12.578125 2.398438 12.800781 2.398438 13.019531 2.578125 13.199219 2.800781 13.199219L6 13.199219C6.15625 13.199219 6.300781 13.109375 6.363281 12.964844L7.976562 9.417969 10.027344 14.546875C10.085938 14.691406 10.21875 14.789062 10.375 14.800781 10.382812 14.800781 10.390625 14.800781 10.398438 14.800781 10.542969 14.800781 10.679688 14.722656 10.75 14.59375L12.410156 11.601562 13.257812 13.019531C13.339844 13.160156 13.503906 13.234375 13.664062 13.210938 13.828125 13.183594 13.957031 13.058594 13.992188 12.898438L15.144531 7.410156 16.003906 12.863281C16.035156 13.058594 16.203125 13.199219 16.398438 13.199219L21.199219 13.199219C21.421875 13.199219 21.601562 13.019531 21.601562 12.800781 21.601562 12.578125 21.421875 12.398438 21.199219 12.398438zM4.800781 20.800781C5.902344 20.800781 6.800781 19.902344 6.800781 18.800781 6.800781 17.695312 5.902344 16.800781 4.800781 16.800781 3.695312 16.800781 2.800781 17.695312 2.800781 18.800781 2.800781 19.902344 3.695312 20.800781 4.800781 20.800781zM4.800781 17.601562C5.320312 17.601562 5.761719 17.9375 5.925781 18.398438L4.800781 18.398438C4.578125 18.398438 4.398438 18.578125 4.398438 18.800781 4.398438 19.019531 4.578125 19.199219 4.800781 19.199219L5.925781 19.199219C5.761719 19.664062 5.320312 20 4.800781 20 4.136719 20 3.601562 19.460938 3.601562 18.800781 3.601562 18.136719 4.136719 17.601562 4.800781 17.601562zM14.800781 20.800781L20.398438 20.800781C20.621094 20.800781 20.800781 20.621094 20.800781 20.398438L20.800781 17.199219C20.800781 16.980469 20.621094 16.800781 20.398438 16.800781L14.800781 16.800781C14.578125 16.800781 14.398438 16.980469 14.398438 17.199219L14.398438 20.398438C14.398438 20.621094 14.578125 20.800781 14.800781 20.800781zM20 20L17.199219 20 17.199219 17.601562 20 17.601562zM15.199219 17.601562L16.398438 17.601562 16.398438 20 15.199219 20zM10.398438 20.800781C10.933594 20.800781 11.4375 20.589844 11.8125 20.214844 12.191406 19.835938 12.398438 19.335938 12.398438 18.800781 12.398438 18.265625 12.191406 17.761719 11.8125 17.386719 11.4375 17.007812 10.933594 16.800781 10.398438 16.800781 9.867188 16.800781 9.363281 17.007812 8.984375 17.386719 8.609375 17.761719 8.398438 18.265625 8.398438 18.800781 8.398438 19.335938 8.609375 19.835938 8.984375 20.214844 9.363281 20.589844 9.867188 20.800781 10.398438 20.800781zM9.550781 17.953125C9.679688 17.824219 9.832031 17.730469 10 17.671875L10 18.800781C10 19.019531 10.179688 19.199219 10.398438 19.199219 10.621094 19.199219 10.800781 19.019531 10.800781 18.800781L10.800781 17.671875C10.964844 17.730469 11.121094 17.824219 11.25 17.953125 11.476562 18.179688 11.601562 18.480469 11.601562 18.800781 11.601562 19.121094 11.476562 19.421875 11.25 19.648438 10.796875 20.101562 10.003906 20.101562 9.550781 19.648438 9.324219 19.421875 9.199219 19.121094 9.199219 18.800781 9.199219 18.480469 9.324219 18.179688 9.550781 17.953125zM9.550781 17.953125"/>
    <path d="M 0 0.398438 L 0 22 L 0.800781 22 L 0.800781 23.601562 L 4 23.601562 L 4 22 L 20 22 L 20 23.601562 L 23.199219 23.601562 L 23.199219 22 L 24 22 L 24 0.398438 Z M 3.199219 22.800781 L 1.601562 22.800781 L 1.601562 22 L 3.199219 22 Z M 22.398438 22.800781 L 20.800781 22.800781 L 20.800781 22 L 22.398438 22 Z M 23.199219 21.199219 L 0.800781 21.199219 L 0.800781 16.398438 L 23.199219 16.398438 Z M 0.800781 15.601562 L 0.800781 1.199219 L 23.199219 1.199219 L 23.199219 15.601562 Z M 0.800781 15.601562"/>
    <path d="M2.96875 5.917969L4.917969 7.585938C5 7.652344 5.097656 7.6875 5.199219 7.6875 5.300781 7.6875 5.402344 7.652344 5.488281 7.582031L7.433594 5.917969C7.886719 5.527344 8.195312 5.03125 8.332031 4.484375 8.421875 4.121094 8.402344 3.878906 8.386719 3.792969 8.285156 2.769531 7.488281 2 6.527344 2 5.988281 2 5.523438 2.28125 5.199219 2.652344 4.875 2.28125 4.414062 2 3.875 2 2.910156 2 2.113281 2.769531 2.011719 3.792969 2 3.878906 1.976562 4.121094 2.066406 4.484375 2.203125 5.03125 2.515625 5.527344 2.96875 5.917969zM2.800781 3.921875L2.808594 3.878906C2.859375 3.34375 3.238281 2.800781 3.875 2.800781 4.308594 2.800781 4.675781 3.183594 4.835938 3.542969L5.199219 4.367188 5.566406 3.542969C5.722656 3.183594 6.09375 2.800781 6.527344 2.800781 7.160156 2.800781 7.542969 3.34375 7.597656 3.910156 7.597656 3.914062 7.617188 4.046875 7.554688 4.292969 7.460938 4.675781 7.238281 5.027344 6.910156 5.308594L5.199219 6.773438 3.492188 5.3125C3.164062 5.027344 2.941406 4.675781 2.84375 4.292969 2.785156 4.054688 2.800781 3.921875 2.800781 3.921875zM20 3.199219L21.601562 3.199219C21.820312 3.199219 22 3.019531 22 2.800781 22 2.578125 21.820312 2.398438 21.601562 2.398438L20 2.398438C19.777344 2.398438 19.601562 2.578125 19.601562 2.800781 19.601562 3.019531 19.777344 3.199219 20 3.199219zM22 4L18.800781 4C18.578125 4 18.398438 4.179688 18.398438 4.398438 18.398438 4.621094 18.578125 4.800781 18.800781 4.800781L22 4.800781C22.222656 4.800781 22.398438 4.621094 22.398438 4.398438 22.398438 4.179688 22.222656 4 22 4zM21.601562 5.601562L20 5.601562C19.777344 5.601562 19.601562 5.777344 19.601562 6 19.601562 6.222656 19.777344 6.398438 20 6.398438L21.601562 6.398438C21.820312 6.398438 22 6.222656 22 6 22 5.777344 21.820312 5.601562 21.601562 5.601562zM21.601562 5.601562"/>
</svg>

<svg xmlns="http://www.w3.org/2000/svg" width="32" height="32" viewBox="0 0 24 24">
    <path d="M21.2 12.398h-4.458l-1.148-7.261a.394.394 0 0 0-.383-.336h-.012a.401.401 0 0 0-.39.316l-1.391 6.613-.676-1.136a.405.405 0 0 0-.347-.196.405.405 0 0 0-.344.207l-1.594 2.864L8.371 8.25A.4.4 0 0 0 8.008 8a.412.412 0 0 0-.371.234l-1.895 4.164H2.801a.401.401 0 0 0 0 .8L6 13.2c.156 0 .3-.09.363-.234l1.614-3.547 2.05 5.129a.406.406 0 0 0 .348.254h.023a.4.4 0 0 0 .352-.207l1.66-2.992.848 1.418c.082.14.246.214.406.19a.405.405 0 0 0 .328-.312l1.153-5.488.859 5.453c.031.196.2.336.394.336H21.2a.401.401 0 1 0 0-.8zm0 0M4.8 20.8c1.102 0 2-.898 2-2a1.999 1.999 0 1 0-2 2zm0-3.198c.52 0 .962.335 1.126.796H4.8a.401.401 0 0 0 0 .8l1.125.001a1.196 1.196 0 0 1-2.324-.398c0-.664.535-1.2 1.199-1.2zm0 0M14.8 20.8h5.598c.223 0 .403-.179.403-.402V17.2a.401.401 0 0 0-.403-.398h-5.597a.401.401 0 0 0-.403.398v3.2c0 .222.18.402.403.402zM20 20h-2.8v-2.398H20zm-4.8-2.398h1.198V20H15.2zm0 0M10.398 20.8c.536 0 1.04-.21 1.415-.585.378-.38.585-.88.585-1.414 0-.535-.207-1.04-.585-1.414a1.976 1.976 0 0 0-1.415-.586c-.53 0-1.035.207-1.414.586a1.999 1.999 0 0 0 1.414 3.414zm-.847-2.847a1.18 1.18 0 0 1 .449-.281V18.8a.4.4 0 0 0 .8 0v-1.13a1.19 1.19 0 0 1 .8 1.129c.002.321-.123.622-.35.848-.453.454-1.246.454-1.7 0a1.19 1.19 0 0 1-.35-.847c0-.32.124-.621.35-.848zm0 0"/>
    <path d="M0 .398V22h.8v1.602H4V22h16v1.602h3.2V22h.8V.398zm3.2 22.403H1.601V22h1.597zm19.198 0h-1.597V22h1.597zm.801-1.602H.801v-4.8h22.398zM.801 15.602V1.199h22.398v14.403zm0 0"/>
    <path d="M2.969 5.918l1.949 1.668a.444.444 0 0 0 .57-.004l1.946-1.664c.453-.39.761-.887.898-1.434.09-.363.07-.605.055-.691C8.285 2.77 7.488 2 6.527 2c-.539 0-1.004.281-1.328.652C4.875 2.282 4.414 2 3.875 2c-.965 0-1.762.77-1.863 1.793-.012.086-.035.328.054.691a2.79 2.79 0 0 0 .903 1.434zM2.8 3.922l.008-.043c.05-.535.43-1.078 1.066-1.078.434 0 .8.383.96.742l.364.824.367-.824c.157-.36.528-.742.961-.742.633 0 1.016.543 1.07 1.11 0 .003.02.136-.042.382a1.958 1.958 0 0 1-.645 1.016L5.2 6.773l-1.708-1.46a2.016 2.016 0 0 1-.648-1.02c-.059-.238-.043-.371-.043-.371zm0 0M20 3.2h1.602a.4.4 0 0 0 0-.802H20a.398.398 0 0 0-.398.403c0 .219.175.398.398.398zm0 0M22 4h-3.2a.401.401 0 1 0 0 .8H22c.223 0 .398-.179.398-.402A.398.398 0 0 0 22 4zm0 0M21.602 5.602H20a.395.395 0 0 0-.398.398c0 .223.175.398.398.398h1.602a.398.398 0 1 0 0-.796zm0 0"/>
</svg>
